X: 22010
T: Kitty's Rambles
R: jig
M: 6/8
K: Dminor
D|AGF c2A|def geg|fed cAF|GBA/G/ FDD|
A2D c2A|def geg|fed cAG|Adc d2:|
|:A|dfa dfa|dfa afd|ceg ceg|ceg gfe|
fdd gdd|aba gfe|fed cAG|Adc d2:|

